X: 41272
T: Túirne Mháire
R: slide
M: 12/8
K: Gmajor
|:D2G GFG F2G A2c|B2c A2G F2A D2C|
D2G GFG F2G A2c|1 B2c A2F G3 G2D:|2 B2c A2F G3 G2A||
|:B2d dcd B2d d2B|c2B A2G F2A D2C|
D2G GFG F2G A2c|1 B2c A2F G3 G2A:|2 B2c A2F G3 G2D|

